X: 9
T: Richmond
B: canberra pickers and fiddlers
B: tunes
M:4/4
L:1/8
R: reel
Q: 1/4=100
K:A
V:1 
(e|:"A"e2)c2e2c2|efec ABcA|"E"B2G2B2G2|"E"BcBG "A"A2>(A2|A)Bcd egaf|
"D"=gefd efed|"E"cABG EGBd|"A"cA2B A3(e:|
"A"a3)b a3(c'|c'2) c'2 e6 g|"D"fd2d d3f|"A"edcB A2 G2|
"A"ABcd e2a2|"D"=gefd efed|"E"cABG EGBd|"A"cA2B (A2A)(e:| 
% abcbook-tune_id 63ae8f1c7dfd292692c1356b
% abcbook-tune_composer_id 
% abcbook-link-0 https://www.youtube.com/watch?v=54TYPcir4Uo
% abcbook-boost 5
% abcbook-difficulty 0
% abcbook-tags canberra pickers and fiddlers,old time tunes,© free
% abcbook-tablature 
% abcbook-transpose 
% abcbook-tuning AEAE
% abcbook-lastupdated 1729480708296
% abcbook-src-url https://tunebook.net/scrape/tunes.abc
% abcbook-soundfonts 
% abcbook-repeats 1


